resources/svg/swim.svg

<svg xmlns="http://www.w3.org/2000/svg" viewBox="0 0 24 24" fill="currentColor"><path fill="none" stroke="currentColor" stroke-linecap="round" stroke-linejoin="round" stroke-width="2" d="M11,13 C11.5,13.5 13.1299859,12.8876287 14.2620192,12.5 C15.7222222,12 17.5,12.5 17,12 C15.3609614,10.3609614 15,10 15,10 C15,10 10.5,12.5 11,13 Z M2,20 C4,20 5,19 7,19 C9,19 10,20 12,20 C14,20 15,19 17,19 C19,19 20,20 22,20 M2,16 C4,16 5,15 7,15 C9,15 10,16 12,16 C14,16 15,15 17,15 C19,15 20,16 22,16 M17.5,4 L12.2222222,7 L15.5,10.5 L12,12 M19.2222222,10 C19.774507,10 20.2222222,9.55228475 20.2222222,9 C20.2222222,8.44771525 19.774507,8 19.2222222,8 C18.6699375,8 18.2222222,8.44771525 18.2222222,9 C18.2222222,9.55228475 18.6699375,10 19.2222222,10 Z"/></svg>

<svg viewBox="0 0 24 24"><path fill="none" stroke="currentColor" stroke-linecap="round" stroke-linejoin="round" stroke-width="2" d="M11 13c.5.5 2.13-.112 3.262-.5c1.46-.5 3.238 0 2.738-.5l-2-2s-4.5 2.5-4 3zm-9 7c2 0 3-1 5-1s3 1 5 1s3-1 5-1s3 1 5 1M2 16c2 0 3-1 5-1s3 1 5 1s3-1 5-1s3 1 5 1M17.5 4l-5.278 3l3.278 3.5L12 12m7.222-2a1 1 0 1 0 0-2a1 1 0 0 0 0 2z"/></svg>
